X:2457
T:Polska från Västergötland
T:Svenska Folkdansar H2 nr 6
O:Västergötland
B:Traditioner av Svenska Folkdansar Häfte 2, nr 6
B:Jämför [[Notböcker/75 polskor från Uppland och Södermanland]], nr 62
R:Polska
Z:Nils L
N:Vissa delar uppvisar likheter med visan [[http://hem.bredband.net/stefanelinden/visa%20Grinden%20Jag%20vet%20en%20janta%20som%20en%20grind%20Medelpad.pdf|Grinden]] från Medelpad ("Jag har (vet) en jänta som har en grind, e lita grind, e lita grind ..."). Se även [[http://www.smus.se/earkiv/fmk/browselarge.php?lang=sw&katalogid=M+187a&bildnr=00031|SMUS - katalog M187a bild 31]] nr 115 - "Fogelns visa af. Ul. Söderberg".
M:3/4
L:1/8
K:G
G>B d2 d>c | e>d c2 c>B | A>B c2 c>e | d>c B2 BA |
D>F A2 F>A | B2 G2 z2 | D>F A2 A>G | B>A G2 G>F |
D>F A2 A>G | B>A G2 G>F | D>F A2 F>A | (B2 G2) z2 |]
(:musicend:)
(:music:)
